chatgpt.svg

<?xml version="1.0" encoding="UTF-8" standalone="no" ?>
<svg xmlns="http://www.w3.org/2000/svg" xmlns:xlink="http://www.w3.org/1999/xlink" version="1.1" width="1080" height="1080" viewBox="0 0 1080 1080" xml:space="preserve">
<desc>Created with Fabric.js 5.2.4</desc>
<defs>
</defs>
<g transform="matrix(1 0 0 1 540 540)" id="550e5c29-c462-4a8d-8c68-19487adb03e9"  >
</g>
<g transform="matrix(1 0 0 1 540 540)" id="52beee32-c7cd-4360-ac52-e0ce6f4a961d"  >
<rect style="stroke: none; stroke-width: 1; stroke-dasharray: none; stroke-linecap: butt; stroke-dashoffset: 0; stroke-linejoin: miter; stroke-miterlimit: 4; fill: rgb(255,255,255); fill-rule: nonzero; opacity: 1; visibility: hidden;" vector-effect="non-scaling-stroke"  x="-540" y="-540" rx="0" ry="0" width="1080" height="1080" />
</g>
<g transform="matrix(3.25 0 0 3.25 540.71 539.89)"  >
<path style="stroke: rgb(0,0,0); stroke-width: 0; stroke-dasharray: none; stroke-linecap: butt; stroke-dashoffset: 0; stroke-linejoin: miter; stroke-miterlimit: 4; fill: rgb(0,0,0); fill-rule: nonzero; opacity: 1;" vector-effect="non-scaling-stroke"  transform=" translate(-160.01, -160)" d="M 297.06 130.97 C 304.32 109.18 301.82 85.31 290.21 65.49 C 272.75 35.089999999999996 237.64999999999998 19.449999999999996 203.36999999999998 26.809999999999995 C 188.11999999999998 9.629999999999995 166.20999999999998 -0.14000000000000412 143.23999999999998 -3.552713678800501e-15 C 108.19999999999999 -0.08000000000000355 77.10999999999999 22.479999999999997 66.32999999999998 55.81999999999999 C 43.81999999999998 60.42999999999999 24.389999999999986 74.52 13.019999999999982 94.49 C -4.570000000000018 124.81 -0.5600000000000183 163.03 22.939999999999984 189.03 C 15.679999999999984 210.82 18.179999999999986 234.69 29.789999999999985 254.51 C 47.249999999999986 284.90999999999997 82.35 300.55 116.63 293.19 C 131.87 310.37 153.79 320.14 176.76 319.99 C 211.82 320.08 242.92 297.5 253.7 264.13 C 276.21 259.52 295.64 245.43 307.01 225.45999999999998 C 324.58 195.14 320.56 156.95 297.07 130.95 z M 176.78 299.08000000000004 C 162.75 299.1 149.16 294.19000000000005 138.39 285.20000000000005 C 138.88 284.94000000000005 139.73 284.47 140.27999999999997 284.13000000000005 L 203.99999999999997 247.33000000000004 C 207.25999999999996 245.48000000000005 209.25999999999996 242.01000000000005 209.23999999999998 238.26000000000005 L 209.23999999999998 148.43000000000006 L 236.17 163.98000000000008 C 236.45999999999998 164.12000000000006 236.64999999999998 164.40000000000006 236.69 164.72000000000008 L 236.69 239.11000000000007 C 236.65 272.19000000000005 209.86 299.01000000000005 176.78 299.08000000000004 z M 47.94 244.05000000000004 C 40.91 231.91000000000003 38.379999999999995 217.68000000000004 40.79 203.87000000000003 C 41.26 204.15000000000003 42.089999999999996 204.66000000000003 42.68 205.00000000000003 L 106.4 241.8 C 109.63000000000001 243.69 113.63000000000001 243.69 116.87 241.8 L 194.66000000000003 196.88 L 194.66000000000003 227.98 C 194.68000000000004 228.29999999999998 194.53000000000003 228.60999999999999 194.28000000000003 228.81 L 129.87000000000003 266 C 101.18000000000004 282.52 64.54000000000003 272.7 47.95000000000003 244.05 z M 31.169999999999998 104.96000000000004 C 38.17 92.80000000000004 49.22 83.50000000000003 62.379999999999995 78.67000000000004 C 62.379999999999995 79.22000000000004 62.349999999999994 80.19000000000004 62.349999999999994 80.87000000000005 L 62.349999999999994 154.48000000000005 C 62.32999999999999 158.22000000000006 64.33 161.69000000000005 67.58 163.54000000000005 L 145.37 208.45000000000005 L 118.44 224.00000000000006 C 118.17 224.18000000000006 117.83 224.21000000000006 117.53 224.08000000000007 L 53.11 186.86000000000007 C 24.48 170.2800000000001 14.659999999999997 133.65000000000006 31.16 104.97000000000007 z M 252.42999999999998 156.45000000000005 L 174.64 111.53000000000004 L 201.57 95.99000000000004 C 201.84 95.81000000000003 202.18 95.78000000000004 202.48 95.91000000000004 L 266.9 133.10000000000002 C 295.58 149.67000000000002 305.40999999999997 186.36 288.84 215.04000000000002 C 281.83 227.18 270.78999999999996 236.48000000000002 257.64 241.32000000000002 L 257.64 165.51000000000002 C 257.66999999999996 161.77 255.67999999999998 158.31000000000003 252.44 156.45000000000002 z M 279.22999999999996 116.11000000000004 C 278.75999999999993 115.82000000000004 277.92999999999995 115.32000000000004 277.34 114.98000000000005 L 213.61999999999998 78.18000000000005 C 210.39 76.29000000000005 206.39 76.29000000000005 203.14999999999998 78.18000000000005 L 125.35999999999997 123.10000000000005 L 125.35999999999997 92.00000000000006 C 125.33999999999997 91.68000000000006 125.48999999999997 91.37000000000006 125.73999999999997 91.17000000000006 L 190.14999999999998 54.01000000000006 C 218.83999999999997 37.460000000000065 255.51999999999998 47.31000000000006 272.05999999999995 76.01000000000006 C 279.04999999999995 88.13000000000007 281.5799999999999 102.32000000000006 279.2099999999999 116.11000000000007 z M 110.71999999999997 171.54000000000005 L 83.77999999999997 155.99000000000004 C 83.48999999999997 155.85000000000005 83.29999999999997 155.57000000000005 83.25999999999998 155.25000000000003 L 83.25999999999998 80.86000000000003 C 83.27999999999997 47.74000000000003 110.14999999999998 20.900000000000027 143.26999999999998 20.92000000000003 C 157.27999999999997 20.92000000000003 170.83999999999997 25.840000000000032 181.60999999999999 34.80000000000003 C 181.11999999999998 35.06000000000003 180.27999999999997 35.53000000000003 179.72 35.87000000000003 L 116 72.67000000000003 C 112.74 74.52000000000002 110.74 77.98000000000003 110.76 81.73000000000003 L 110.72 171.52000000000004 z M 125.34999999999997 140.00000000000006 L 159.99999999999997 119.99000000000005 L 194.64999999999998 139.99000000000007 L 194.64999999999998 180.00000000000006 L 159.99999999999997 200.00000000000006 L 125.34999999999997 180.00000000000006 z" stroke-linecap="round" />
</g>
</svg>

<svg xmlns="http://www.w3.org/2000/svg" aria-hidden="true" width="32" height="32" viewBox="105 -5 110 330">
  <path d="m297.06 130.97c7.26-21.79 4.76-45.66-6.85-65.48-17.46-30.4-52.56-46.04-86.84-38.68-15.25-17.18-37.16-26.95-60.13-26.81-35.04-.08-66.13 22.48-76.91 55.82-22.51 4.61-41.94 18.7-53.31 38.67-17.59 30.32-13.58 68.54 9.92 94.54-7.26 21.79-4.76 45.66 6.85 65.48 17.46 30.4 52.56 46.04 86.84 38.68 15.24 17.18 37.16 26.95 60.13 26.8 35.06.09 66.16-22.49 76.94-55.86 22.51-4.61 41.94-18.7 53.31-38.67 17.57-30.32 13.55-68.51-9.94-94.51zm-120.28 168.11c-14.03.02-27.62-4.89-38.39-13.88.49-.26 1.34-.73 1.89-1.07l63.72-36.8c3.26-1.85 5.26-5.32 5.24-9.07v-89.83l26.93 15.55c.29.14.48.42.52.74v74.39c-.04 33.08-26.83 59.9-59.91 59.97zm-128.84-55.03c-7.03-12.14-9.56-26.37-7.15-40.18.47.28 1.3.79 1.89 1.13l63.72 36.8c3.23 1.89 7.23 1.89 10.47 0l77.79-44.92v31.1c.02.32-.13.63-.38.83l-64.41 37.19c-28.69 16.52-65.33 6.7-81.92-21.95zm-16.77-139.09c7-12.16 18.05-21.46 31.21-26.29 0 .55-.03 1.52-.03 2.2v73.61c-.02 3.74 1.98 7.21 5.23 9.06l77.79 44.91-26.93 15.55c-.27.18-.61.21-.91.08l-64.42-37.22c-28.63-16.58-38.45-53.21-21.95-81.89zm221.26 51.49-77.79-44.92 26.93-15.54c.27-.18.61-.21.91-.08l64.42 37.19c28.68 16.57 38.51 53.26 21.94 81.94-7.01 12.14-18.05 21.44-31.2 26.28v-75.81c.03-3.74-1.96-7.2-5.2-9.06zm26.8-40.34c-.47-.29-1.3-.79-1.89-1.13l-63.72-36.8c-3.23-1.89-7.23-1.89-10.47 0l-77.79 44.92v-31.1c-.02-.32.13-.63.38-.83l64.41-37.16c28.69-16.55 65.37-6.7 81.91 22 6.99 12.12 9.52 26.31 7.15 40.1zm-168.51 55.43-26.94-15.55c-.29-.14-.48-.42-.52-.74v-74.39c.02-33.12 26.89-59.96 60.01-59.94 14.01 0 27.57 4.92 38.34 13.88-.49.26-1.33.73-1.89 1.07l-63.72 36.8c-3.26 1.85-5.26 5.31-5.24 9.06l-.04 89.79zm14.63-31.54 34.65-20.01 34.65 20v40.01l-34.65 20-34.65-20z"></path>
</svg>
